X: 3896
T: Black, The
R: reel
M: 4/4
K: Bminor
dc|:B2fe dcBA|B2fe dcBA|G2dG eGdG|1 A2eA fAeA:|2 A2eA fAde||
|:fbba fafe|dedc BAGF|1 G2BG dGBG|A2cA eAcA:|2 G2BG d3G|A2cA e3A|B2||

